X:242
T:Mary No More. JC.247
R:Air
S:John Clare,Poet,Helpstone (1793-1864)
N:MR This tune is written in pencil in MS.
N:Bars 1.2.3.4.6.10. Dotted qu's followed by qu's in MS.
O:England
A:Northamptonshire
Z:vmp.Phil Headford
M:C|
L:1/8
Q:2/4=60
K:D
A|\
d>cd>e dccd|B>AB>d B>AF>d|A>FE>D D2FA|B>dc2 {Bc}d2z:|!
|:A|d2d>e f3f|g3e fdB>A|d>dfa dccd|BA Bd BA Fd/f/|!
a3b a<fed|BA>Bd B>A Fd|AFED D2FA|B2c2 d2z:|

